ncols 37
nrows 29
xllcorner 430000.0
yllcorner 4580000.0
cellsize 2.0
NODATA_value -9999
101.1500 101.3336 101.4992 101.6307 101.7160 101.7477 101.7246 101.6515 101.5386 101.4006 101.2547 101.1194 101.0116 100.9455 100.9305 100.9705 101.0633 101.2009 101.3703 101.5551 101.7371 101.8985 102.0237 102.1013 102.1247 102.0936 102.0138 101.8961 101.7557 101.6102 101.4780 101.3757 101.3168 101.3100 101.3583 101.4584 101.6017
101.1100 101.2936 101.4592 101.5907 101.6760 101.7077 101.6846 101.6115 101.4986 101.3606 101.2147 101.0794 100.9716 100.9055 100.8905 100.9305 101.0233 101.1609 101.3303 101.5151 101.6971 101.8585 101.9837 102.0613 102.0847 102.0536 101.9738 101.8561 101.7157 101.5702 101.4380 101.3357 101.2768 101.2700 101.3183 101.4184 101.5617
101.0700 101.2536 101.4192 101.5507 101.6360 101.6677 101.6446 101.5715 101.4586 101.3206 101.1747 101.0394 100.9316 100.8655 100.8505 100.8905 100.9833 101.1209 101.2903 101.4751 101.6571 101.8185 101.9437 102.0213 102.0447 102.0136 101.9338 101.8161 101.6757 101.5302 101.3980 101.2957 101.2368 101.2300 101.2783 101.3784 101.5217
101.0300 101.2136 101.3792 101.5107 -9999.0000 101.6277 101.6046 101.5315 101.4186 101.2806 101.1347 100.9994 100.8916 100.8255 100.8105 100.8505 100.9433 101.0809 101.2503 101.4351 101.6171 101.7785 101.9037 101.9813 102.0047 101.9736 101.8938 101.7761 101.6357 101.4902 101.3580 101.2557 101.1968 101.1900 101.2383 101.3384 101.4817
100.9900 101.1736 101.3392 101.4707 101.5560 101.5877 101.5646 101.4915 101.3786 101.2406 101.0947 100.9594 100.8516 100.7855 100.7705 100.8105 100.9033 101.0409 101.2103 101.3951 101.5771 101.7385 101.8637 101.9413 101.9647 101.9336 101.8538 101.7361 101.5957 101.4502 101.3180 101.2157 101.1568 101.1500 101.1983 101.2984 101.4417
100.9500 101.1336 101.2992 101.4307 101.5160 101.5477 101.5246 101.4515 101.3386 101.2006 101.0547 100.9194 100.8116 100.7455 100.7305 100.7705 100.8633 101.0009 101.1703 101.3551 101.5371 101.6985 101.8237 101.9013 101.9247 101.8936 101.8138 101.6961 101.5557 101.4102 101.2780 101.1757 101.1168 101.1100 101.1583 101.2584 101.4017
100.9100 101.0936 101.2592 101.3907 101.4760 101.5077 101.4846 101.4115 101.2986 101.1606 101.0147 100.8794 100.7716 100.7055 100.6905 100.7305 100.8233 100.9609 101.1303 101.3151 101.4971 101.6585 101.7837 101.8613 101.8847 101.8536 101.7738 101.6561 101.5157 101.3702 101.2380 101.1357 101.0768 101.0700 101.1183 101.2184 101.3617
100.8700 101.0536 101.2192 101.3507 101.4360 101.4677 101.4446 101.3715 101.2586 101.1206 100.9747 100.8394 100.7316 100.6655 100.6505 100.6905 100.7833 100.9209 101.0903 101.2751 101.4571 101.6185 101.7437 101.8213 101.8447 101.8136 101.7338 101.6161 101.4757 101.3302 101.1980 101.0957 101.0368 101.0300 101.0783 101.1784 101.3217
100.8300 101.0136 101.1792 101.3107 101.3960 101.4277 101.4046 101.3315 101.2186 101.0806 100.9347 100.7994 100.6916 100.6255 100.6105 100.6505 100.7433 100.8809 101.0503 101.2351 101.4171 101.5785 101.7037 101.7813 101.8047 101.7736 101.6938 101.5761 101.4357 101.2902 101.1580 101.0557 100.9968 100.9900 101.0383 101.1384 101.2817
100.7900 100.9736 101.1392 101.2707 101.3560 101.3877 101.3646 101.2915 101.1786 101.0406 100.8947 100.7594 100.6516 100.5855 100.5705 100.6105 100.7033 100.8409 101.0103 101.1951 101.3771 101.5385 101.6637 101.7413 101.7647 101.7336 101.6538 101.5361 101.3957 101.2502 101.1180 101.0157 100.9568 100.9500 100.9983 101.0984 101.2417
100.7500 100.9336 101.0992 101.2307 101.3160 101.3477 101.3246 101.2515 101.1386 101.0006 100.8547 100.7194 100.6116 100.5455 100.5305 100.5705 100.6633 100.8009 100.9703 101.1551 101.3371 101.4985 101.6237 101.7013 101.7247 101.6936 101.6138 101.4961 101.3557 101.2102 101.0780 100.9757 100.9168 100.9100 100.9583 101.0584 101.2017
100.7100 100.8936 101.0592 101.1907 101.2760 101.3077 101.2846 101.2115 101.0986 100.9606 100.8147 100.6794 100.5716 100.5055 100.4905 100.5305 100.6233 100.7609 100.9303 101.1151 101.2971 101.4585 101.5837 101.6613 101.6847 101.6536 101.5738 101.4561 101.3157 101.1702 101.0380 100.9357 100.8768 100.8700 100.9183 101.0184 101.1617
100.6700 100.8536 101.0192 101.1507 101.2360 101.2677 101.2446 101.1715 101.0586 100.9206 100.7747 100.6394 100.5316 100.4655 100.4505 100.4905 100.5833 100.7209 100.8903 101.0751 101.2571 101.4185 101.5437 101.6213 101.6447 101.6136 101.5338 101.4161 101.2757 101.1302 100.9980 100.8957 100.8368 100.8300 100.8783 100.9784 101.1217
100.6300 100.8136 100.9792 101.1107 101.1960 101.2277 101.2046 101.1315 101.0186 100.8806 100.7347 100.5994 100.4916 100.4255 100.4105 100.4505 100.5433 100.6809 100.8503 101.0351 101.2171 101.3785 101.5037 101.5813 101.6047 101.5736 101.4938 101.3761 101.2357 101.0902 100.9580 100.8557 100.7968 100.7900 100.8383 100.9384 101.0817
100.5900 100.7736 100.9392 101.0707 101.1560 101.1877 101.1646 101.0915 100.9786 100.8406 100.6947 100.5594 100.4516 100.3855 100.3705 100.4105 100.5033 100.6409 100.8103 100.9951 101.1771 101.3385 101.4637 101.5413 101.5647 101.5336 101.4538 101.3361 101.1957 101.0502 100.9180 100.8157 100.7568 100.7500 100.7983 100.8984 101.0417
100.5500 100.7336 100.8992 101.0307 101.1160 101.1477 101.1246 101.0515 100.9386 100.8006 100.6547 100.5194 100.4116 100.3455 100.3305 100.3705 100.4633 100.6009 100.7703 100.9551 101.1371 101.2985 101.4237 101.5013 101.5247 101.4936 101.4138 101.2961 101.1557 101.0102 100.8780 100.7757 100.7168 100.7100 100.7583 100.8584 101.0017
100.5100 100.6936 100.8592 100.9907 101.0760 101.1077 101.0846 101.0115 100.8986 100.7606 100.6147 100.4794 100.3716 100.3055 100.2905 100.3305 100.4233 100.5609 100.7303 100.9151 101.0971 101.2585 101.3837 101.4613 101.4847 101.4536 101.3738 101.2561 101.1157 100.9702 100.8380 100.7357 100.6768 100.6700 100.7183 100.8184 100.9617
100.4700 100.6536 100.8192 100.9507 101.0360 101.0677 101.0446 100.9715 100.8586 100.7206 100.5747 100.4394 100.3316 100.2655 100.2505 100.2905 100.3833 100.5209 100.6903 100.8751 101.0571 101.2185 101.3437 101.4213 101.4447 101.4136 101.3338 101.2161 101.0757 100.9302 100.7980 100.6957 100.6368 100.6300 100.6783 100.7784 100.9217
100.4300 100.6136 100.7792 100.9107 100.9960 101.0277 101.0046 100.9315 100.8186 100.6806 100.5347 100.3994 100.2916 100.2255 100.2105 100.2505 100.3433 100.4809 100.6503 100.8351 101.0171 101.1785 101.3037 101.3813 101.4047 101.3736 101.2938 101.1761 101.0357 100.8902 100.7580 100.6557 100.5968 100.5900 100.6383 100.7384 100.8817
100.3900 100.5736 100.7392 100.8707 100.9560 100.9877 100.9646 100.8915 100.7786 100.6406 100.4947 100.3594 100.2516 100.1855 100.1705 100.2105 100.3033 100.4409 100.6103 100.7951 100.9771 101.1385 101.2637 101.3413 101.3647 101.3336 101.2538 101.1361 100.9957 100.8502 100.7180 100.6157 100.5568 100.5500 100.5983 100.6984 100.8417
100.3500 100.5336 100.6992 100.8307 100.9160 100.9477 100.9246 100.8515 100.7386 100.6006 100.4547 100.3194 100.2116 100.1455 100.1305 100.1705 100.2633 100.4009 100.5703 100.7551 100.9371 101.0985 101.2237 101.3013 101.3247 101.2936 101.2138 101.0961 100.9557 100.8102 100.6780 100.5757 100.5168 100.5100 100.5583 100.6584 100.8017
100.3100 100.4936 100.6592 100.7907 100.8760 100.9077 100.8846 100.8115 100.6986 100.5606 100.4147 100.2794 100.1716 100.1055 100.0905 100.1305 100.2233 100.3609 100.5303 100.7151 100.8971 101.0585 101.1837 101.2613 101.2847 101.2536 101.1738 101.0561 100.9157 100.7702 100.6380 100.5357 100.4768 100.4700 100.5183 100.6184 100.7617
100.2700 100.4536 100.6192 100.7507 100.8360 100.8677 100.8446 100.7715 100.6586 100.5206 100.3747 100.2394 100.1316 100.0655 100.0505 100.0905 100.1833 100.3209 100.4903 100.6751 100.8571 101.0185 101.1437 101.2213 101.2447 101.2136 101.1338 101.0161 100.8757 100.7302 100.5980 100.4957 100.4368 100.4300 100.4783 100.5784 100.7217
100.2300 100.4136 100.5792 100.7107 100.7960 100.8277 100.8046 100.7315 100.6186 100.4806 100.3347 100.1994 100.0916 100.0255 100.0105 100.0505 100.1433 100.2809 100.4503 100.6351 100.8171 100.9785 101.1037 101.1813 101.2047 101.1736 101.0938 100.9761 100.8357 100.6902 100.5580 100.4557 100.3968 100.3900 100.4383 100.5384 100.6817
100.1900 100.3736 100.5392 100.6707 100.7560 100.7877 100.7646 100.6915 100.5786 100.4406 100.2947 100.1594 100.0516 99.9855 99.9705 100.0105 100.1033 100.2409 100.4103 100.5951 100.7771 100.9385 101.0637 101.1413 101.1647 101.1336 101.0538 100.9361 100.7957 100.6502 100.5180 100.4157 100.3568 100.3500 100.3983 100.4984 100.6417
100.1500 100.3336 100.4992 100.6307 100.7160 100.7477 100.7246 100.6515 100.5386 100.4006 100.2547 100.1194 100.0116 99.9455 99.9305 99.9705 100.0633 100.2009 100.3703 100.5551 100.7371 100.8985 101.0237 101.1013 101.1247 101.0936 101.0138 100.8961 100.7557 100.6102 100.4780 100.3757 100.3168 100.3100 100.3583 100.4584 100.6017
100.1100 100.2936 100.4592 100.5907 100.6760 100.7077 100.6846 100.6115 100.4986 100.3606 100.2147 100.0794 99.9716 99.9055 99.8905 99.9305 100.0233 100.1609 100.3303 100.5151 100.6971 100.8585 100.9837 101.0613 101.0847 101.0536 100.9738 100.8561 100.7157 100.5702 100.4380 100.3357 100.2768 100.2700 100.3183 100.4184 100.5617
100.0700 100.2536 100.4192 100.5507 100.6360 100.6677 100.6446 100.5715 100.4586 100.3206 100.1747 100.0394 99.9316 99.8655 99.8505 99.8905 99.9833 100.1209 100.2903 100.4751 100.6571 100.8185 100.9437 101.0213 101.0447 101.0136 100.9338 100.8161 100.6757 100.5302 100.3980 100.2957 100.2368 100.2300 100.2783 100.3784 100.5217
100.0300 100.2136 100.3792 100.5107 100.5960 100.6277 100.6046 100.5315 100.4186 100.2806 100.1347 99.9994 99.8916 99.8255 99.8105 99.8505 99.9433 100.0809 100.2503 100.4351 100.6171 100.7785 100.9037 100.9813 101.0047 100.9736 100.8938 100.7761 100.6357 100.4902 100.3580 100.2557 100.1968 100.1900 100.2383 100.3384 100.4817
